svgs/sharp-regular/popsicle.svg

<svg xmlns="http://www.w3.org/2000/svg" viewBox="0 0 320 512"><!--! Font Awesome Pro 6.4.2 by @fontawesome - https://fontawesome.com License - https://fontawesome.com/license (Commercial License) Copyright 2023 Fonticons, Inc. --><path d="M272 160c0-61.9-50.1-112-112-112S48 98.1 48 160V336h88V184 160h48v24V336h88V160zM136 384H48 0V336 160C0 71.6 71.6 0 160 0s160 71.6 160 160V336v48H272 184V488v24H136V488 384z"/></svg>

<svg xmlns="http://www.w3.org/2000/svg" viewBox="0 0 320 512"><!--! Font Awesome Pro 6.6.0 by @fontawesome - https://fontawesome.com License - https://fontawesome.com/license (Commercial License) Copyright 2024 Fonticons, Inc. --><path d="M272 160c0-61.9-50.1-112-112-112S48 98.1 48 160l0 176 88 0 0-152 0-24 48 0 0 24 0 152 88 0 0-176zM136 384l-88 0L0 384l0-48L0 160C0 71.6 71.6 0 160 0s160 71.6 160 160l0 176 0 48-48 0-88 0 0 104 0 24-48 0 0-24 0-104z"/></svg>
